img/benefits/group-1.svg

<svg width="47" height="31" viewBox="0 0 47 31" fill="none" xmlns="http://www.w3.org/2000/svg">
<path d="M15.4468 30.8924C17.546 30.8924 19.5238 30.4889 21.3803 29.6819C23.2367 28.8749 24.8767 27.7599 26.3002 26.3369C27.7237 24.9139 28.842 23.271 29.655 21.408C30.4679 19.545 30.8744 17.5641 30.8744 15.4651C30.8744 13.3532 30.4679 11.3659 29.655 9.50333C28.842 7.64077 27.7237 5.99778 26.3002 4.57438C24.8767 3.15097 23.2335 2.03272 21.3705 1.21963C19.5075 0.406543 17.52 0 15.4078 0C13.3089 0 11.3312 0.406543 9.47469 1.21963C7.61822 2.03272 5.97848 3.15097 4.55548 4.57438C3.13248 5.99778 2.01748 7.64077 1.21049 9.50333C0.403496 11.3659 0 13.3532 0 15.4651C0 17.5641 0.406493 19.545 1.21948 21.408C2.03246 23.271 3.15071 24.9139 4.57422 26.3369C5.99773 27.7599 7.63772 28.8749 9.49419 29.6819C11.3507 30.4889 13.3349 30.8924 15.4468 30.8924Z" fill="#0037FC"/>
<path d="M15.4082 29.9369C13.3986 29.9369 11.5216 29.5642 9.77707 28.819C8.03255 28.0738 6.49912 27.0398 5.17679 25.7169C3.85446 24.3941 2.82367 22.8574 2.08444 21.1069C1.3452 19.3564 0.975586 17.4758 0.975586 15.4653C0.975586 13.4547 1.3452 11.5741 2.08444 9.82363C2.82367 8.07311 3.85146 6.53664 5.1678 5.21421C6.48414 3.89177 8.01431 2.85774 9.75832 2.1121C11.5023 1.36647 13.3791 0.993652 15.3887 0.993652C17.3992 0.993652 19.2798 1.36647 21.0303 2.1121C22.7808 2.85774 24.3205 3.89177 25.6495 5.21421C26.9784 6.53664 28.0158 8.07311 28.7615 9.82363C29.5072 11.5741 29.8801 13.4547 29.8801 15.4653C29.8921 17.4758 29.5255 19.3564 28.7802 21.1069C28.035 22.8574 27.0012 24.3941 25.6787 25.7169C24.3563 27.0398 22.8196 28.0738 21.0687 28.819C19.3178 29.5642 17.4309 29.9369 15.4082 29.9369Z" fill="#0037FC"/>
<path d="M15.4666 10.1911C16.1785 10.1911 16.7854 9.93735 17.2873 9.42994C17.7893 8.92252 18.0402 8.31235 18.0402 7.59942C18.0402 6.86151 17.7893 6.24184 17.2873 5.74042C16.7854 5.23899 16.1785 4.98828 15.4666 4.98828C14.7287 4.98828 14.1058 5.24204 13.5978 5.74956C13.0899 6.25708 12.8359 6.8737 12.8359 7.59942C12.8359 8.32433 13.0899 8.9375 13.5978 9.43893C14.1058 9.94035 14.7287 10.1911 15.4666 10.1911Z" fill="white"/>
<path d="M35.3825 22.3996C35.479 22.511 35.6002 22.5604 35.7459 22.5479C35.8917 22.5354 36.0199 22.4765 36.1304 22.3713C37.0237 21.4743 37.7165 20.4356 38.2087 19.2552C38.7008 18.0748 38.9469 16.8114 38.9469 15.4652C38.9469 14.119 38.7008 12.8527 38.2087 11.6662C37.7165 10.4796 37.0237 9.44399 36.1304 8.55918C36.0199 8.44195 35.8917 8.38009 35.7459 8.37358C35.6002 8.36708 35.479 8.4195 35.3825 8.53084C35.299 8.62938 35.2667 8.74539 35.2855 8.87887C35.3042 9.01235 35.367 9.13121 35.4736 9.23543C36.3235 9.97578 36.9518 10.8945 37.3585 11.9916C37.7653 13.0888 37.9687 14.2466 37.9687 15.4652C37.9687 16.6839 37.7653 17.8417 37.3585 18.9388C36.9518 20.036 36.3235 20.9547 35.4736 21.695C35.367 21.7863 35.3042 21.9019 35.2855 22.0419C35.2667 22.1818 35.299 22.3011 35.3825 22.3996Z" fill="#0037FC"/>
<path d="M40.5184 27.7055C40.6271 27.8049 40.7533 27.8511 40.8972 27.8442C41.041 27.8373 41.1691 27.7826 41.2815 27.6802C42.8589 26.0923 44.1045 24.257 45.0182 22.1744C45.932 20.0918 46.3889 17.8553 46.3889 15.465C46.3889 13.0747 45.932 10.8351 45.0182 8.74595C44.1045 6.65686 42.8589 4.82482 41.2815 3.24985C41.1691 3.14664 41.041 3.08873 40.8972 3.07614C40.7533 3.06354 40.6271 3.11301 40.5184 3.22455C40.4349 3.32309 40.4078 3.43956 40.4373 3.57395C40.4668 3.70835 40.5312 3.82675 40.6305 3.92915C42.1234 5.42163 43.2933 7.14868 44.1402 9.11029C44.9871 11.0719 45.4106 13.1901 45.4106 15.465C45.4106 17.7269 44.9871 19.8419 44.1402 21.81C43.2933 23.7782 42.1234 25.5085 40.6305 27.0009C40.5312 27.0914 40.4668 27.2068 40.4373 27.3471C40.4078 27.4875 40.4349 27.607 40.5184 27.7055Z" fill="#0037FC"/>
</svg>

<svg width="47" height="31" fill="none" xmlns="http://www.w3.org/2000/svg"><path d="M15.447 30.892c2.099 0 4.077-.403 5.933-1.21a15.813 15.813 0 004.92-3.345 15.893 15.893 0 003.355-4.929c.813-1.863 1.22-3.844 1.22-5.943 0-2.112-.407-4.1-1.22-5.962A15.903 15.903 0 0026.3 4.574a15.905 15.905 0 00-4.93-3.354C19.508.407 17.52 0 15.409 0c-2.1 0-4.077.407-5.933 1.22a15.93 15.93 0 00-4.92 3.354 15.78 15.78 0 00-3.345 4.93C.403 11.365 0 13.353 0 15.464c0 2.1.406 4.08 1.22 5.943a15.892 15.892 0 003.354 4.929 15.813 15.813 0 004.92 3.345c1.857.807 3.84 1.21 5.953 1.21z" fill="#0037FC"/><path d="M15.408 29.937c-2.01 0-3.886-.373-5.63-1.118a14.486 14.486 0 01-4.601-3.102 14.352 14.352 0 01-3.093-4.61c-.739-1.75-1.108-3.631-1.108-5.642 0-2.01.37-3.89 1.108-5.641a14.418 14.418 0 017.674-7.712c1.744-.746 3.621-1.118 5.63-1.118 2.011 0 3.892.372 5.642 1.118a14.59 14.59 0 014.62 3.102 14.398 14.398 0 013.112 4.61c.745 1.75 1.118 3.63 1.118 5.641.012 2.01-.354 3.891-1.1 5.642a14.472 14.472 0 01-7.711 7.712c-1.751.745-3.638 1.118-5.66 1.118z" fill="#0037FC"/><path d="M15.467 10.191c.711 0 1.318-.254 1.82-.761a2.51 2.51 0 00.753-1.83c0-.738-.25-1.358-.753-1.86a2.481 2.481 0 00-1.82-.752c-.738 0-1.361.254-1.87.762a2.517 2.517 0 00-.761 1.85c0 .724.254 1.338.762 1.839.508.501 1.13.752 1.869.752z" fill="#fff"/><path d="M35.383 22.4a.41.41 0 00.363.148.621.621 0 00.384-.177 9.618 9.618 0 002.079-3.116 9.75 9.75 0 00.738-3.79 9.817 9.817 0 00-.738-3.799A9.387 9.387 0 0036.13 8.56a.55.55 0 00-.384-.185.433.433 0 00-.364.157.423.423 0 00-.096.348.61.61 0 00.188.356c.85.74 1.478 1.66 1.885 2.757a9.91 9.91 0 01.61 3.473 9.91 9.91 0 01-.61 3.474 6.657 6.657 0 01-1.885 2.756.535.535 0 00-.188.347c-.02.14.013.26.096.358zm5.135 5.306a.51.51 0 00.38.138.6.6 0 00.383-.164 18.002 18.002 0 003.737-5.506c.914-2.082 1.37-4.319 1.37-6.709 0-2.39-.456-4.63-1.37-6.719a17.728 17.728 0 00-3.736-5.496.639.639 0 00-.385-.174.453.453 0 00-.379.149.385.385 0 00-.08.349.721.721 0 00.192.355 16.51 16.51 0 013.51 5.181c.847 1.962 1.27 4.08 1.27 6.355 0 2.262-.423 4.377-1.27 6.345A16.476 16.476 0 0140.63 27a.63.63 0 00-.193.347c-.03.14-.002.26.081.358z" fill="#0037FC"/></svg>
